X: 60
T: Paddy's Green Shamrock Shore
T: Gleanntáin Ghlas' Ghaoth Dobhair, Lough Erin Shore
R: waltz
M: 3/4
L: 1/8
K: Amix
A2 | "A" e3f g2 | e4 A2      | e3c e2     | "D"d2c2A2 | "G" G3F G2 | "A" A4 B2  | A6-     | A4  |
a2 | "D" f3e d2 | "A" e3f g2 | "A" a3g f2 | e4 a2     | "G" g3fe2  | "D" d2A2B2 | "G" G6- | G4  |
ag | "D" f3e d2 | "A" e3f g2 | "A" a3g f2 | e4 a2     | "G" g3f e2 | "D" d2A2B2 | "G" G6- | G4  |
A2 | "A" e3f g2 | e4A2       | e3c e2     | "D"d2c2A2 | "G" G3F G2 | "D" A4 B2  | "A" A6- | A4 :|

